X:1
T:Salmo 15/03/2020
T:Salmo 94
T:Diego Rodríguez
C:Diego Rodríguez
%%score { 1 | 2 }
L:1/8
Q:1/4=100
M:4/4
K:Ab
V:1 treble nm="Piano" snm="Pno."
V:2 bass 
V:1
 z6 z"^Se-" c |"^ñor" f3"^que" f"^no" f"^se-"g"^a-"f"^mos"e |"^sor-" d2"^dos" d2 z4 | %3
 z4"^a" f2"^tu" =e2 |"^voz" f8 | z6 z"^Se-" c |"^ñor" f3"^que" f"^no" f"^se-"g"^a-"f"^mos"e | %7
"^sor-" d2"^dos" d2 z4 | z4"^a" f2"^tu" =e2 |"^voz" f8 |] %10
V:2
"Fm" [F,A,C]2 [F,A,C]3/2[F,A,C]3/2[F,A,C] [F,A,C]2 | %1
"Fm" [F,A,C]2 [F,A,C]3/2[F,A,C]3/2[F,A,C] [F,A,C]2 | %2
"Bbm" [D,F,B,]2 [D,F,B,]3/2[D,F,B,]3/2[D,F,B,] [D,F,B,]2 | %3
"Gm7b5" [D,F,G,B,]2 [D,F,G,B,]3/2[D,F,G,B,]3/2"Gother"[D,_F,G,B,] [D,F,G,B,]2 | %4
"F" [F,=A,C]2 [F,A,C]3/2[F,A,C]3/2[F,A,C] [F,A,C]2 | %5
"Bbm" [D,F,B,]2 [D,F,B,]3/2[D,F,B,]3/2"Gother"[D,_F,G,B,] [D,F,G,B,]2 | %6
"Fm" [F,A,C]2 [F,A,C]3/2[F,A,C]3/2[F,A,C] [F,A,C]2 | %7
"Bbm" [D,F,B,]2 [D,F,B,]3/2[D,F,B,]3/2[D,F,B,] [D,F,B,]2 | %8
"Gm7b5" [D,F,G,B,]2 [D,F,G,B,]3/2[D,F,G,B,]3/2"Gother"[D,_F,G,B,] [D,F,G,B,]2 | %9
"F" [F,=A,C]2 [F,A,C]3/2[F,A,C]3/2[F,A,C] [F,A,C]2 |] %10

